!!!COM: Palestrina, Giovanni Perluigi da
!!!OPR: Missa Quando lieta sperai
!!!OMD: Credo
!!!OTL: First Section
**kern	**kern	**kern	**kern	**kern
*Ibass	*Ibarit	*Itenor	*Icalto	*Icant
!Bassus	!Baritone	!Tenor	!Altus	!Cantus
*clefF4	*clefF4	*clefGv2	*clefG2	*clefG2
*k[]	*k[]	*k[]	*k[]	*k[]
*A:aeo	*A:aeo	*A:aeo	*A:aeo	*A:aeo
*M4/2	*M4/2	*M4/2	*M4/2	*M4/2
=1	=1	=1	=1	=1
1A	0r	1A	0r	0r
2G	.	2B	.	.
2F#	.	2A	.	.
=2	=2	=2	=2	=2
2G	2r	2B	0r	1e
2A	1e	2c	.	.
2.D	.	1d	.	[1f
.	[2d	.	.	.
4E	.	.	.	.
=3	=3	=3	=3	=3
4F	2d]	1A	0r	2f]
4G	.	.	.	.
2A	2c	.	.	2e
2D	2d	1r	.	2f
2E	2B	.	.	2g
=4	=4	=4	=4	=4
1AA	1A	2r	1e	1a
.	.	2e	.	.
1r	2D	2d	2f	2a
.	2A	2c#	2e	2a
=5	=5	=5	=5	=5
0r	2D	1d	2f	2a
.	2G	.	2g	2b
.	2F	2f	2a	1cc
.	2C	2e	[2g	.
=6	=6	=6	=6	=6
0r	1D	2.d	2g]	2b
.	.	.	2f	1a
.	.	4c	.	.
.	1E	1B	[1e	.
.	.	.	.	2g#
=7	=7	=7	=7	=7
2r	2A	2A	1e]	1a
1A	1c	1e	.	.
.	.	.	1r	1r
2G#	2B	2e	.	.
=8	=8	=8	=8	=8
2A	2c	2e	0r	0r
2D	2d	2f	.	.
1A	1c	2e	.	.
.	.	[2f	.	.
=9	=9	=9	=9	=9
2.G	2B	4f]	1r	1r
.	.	4e	.	.
.	2B	2e	.	.
8F	.	.	.	.
8E	.	.	.	.
2F	1A	2d	2r	2r
2F	.	2c	[2a	[2cc
=10	=10	=10	=10	=10
1E	0r	1e	2a]	2cc]
.	.	.	2g	2b
1r	.	1r	2f	2a
.	.	.	2e	2g
=11	=11	=11	=11	=11
0r	0r	2r	2.f	2.a
.	.	1d	.	.
.	.	.	4e	4g
.	.	.	2d	2f
.	.	2c	2A	2e
=12	=12	=12	=12	=12
0r	2r	2.f	1a	4d
.	.	.	.	4e
.	1d	.	.	4f
.	.	4e	.	4g
.	.	2d	2f	2.a
.	2c	2A	2e	.
.	.	.	.	8g#
.	.	.	.	8f#
=13	=13	=13	=13	=13
0r	2B	4d	2d	2g#
.	.	4B	.	.
.	2A	2.e	2c	1a
.	2B	.	2d	.
.	.	4d	.	.
.	2B	[2d	2d	2g#
=14	=14	=14	=14	=14
0r	0A	2d]	1.e	0a
.	.	4c	.	.
.	.	4B	.	.
.	.	2c	.	.
.	.	2c	[2a	.
=15	=15	=15	=15	=15
2.E	2.e	1B	2a]	2.b
.	.	.	2g#	.
4E	4e	.	.	4b
2E	2e	2.e	2g#	2b
2E	2B	.	2g#	2b
.	.	4e	.	.
=16	=16	=16	=16	=16
2A	2r	2e	1.a	2cc#
2A	2.A	2e	.	2cc#
1D	.	2f#	.	1dd
.	4A	.	.	.
.	[2d	2f#	2a	.
=17	=17	=17	=17	=17
1G	2d]	1g	1d	1b
.	1B	.	.	.
1E	.	2.g	[1e	1b
.	2e	.	.	.
.	.	4f	.	.
=18	=18	=18	=18	=18
0A	2.c	2e	2e]	0cc
.	.	2A	2e	.
.	4B	.	.	.
.	4A	1e	1a	.
.	4G#	.	.	.
.	2A	.	.	.
=19	=19	=19	=19	=19
0E	0B	1e	1g#	2b
.	.	.	.	2.b
.	.	2.e	2.g#	.
.	.	.	.	4b
.	.	.	.	2b
.	.	4e	4g#	.
=20	=20	=20	=20	=20
0r	0r	2e	2g#	1cc
.	.	1f	1a	.
.	.	.	.	1dd
.	.	2g	2b	.
=21	=21	=21	=21	=21
0r	0r	2e	2g	2ee
.	.	2c	2cc	2ee
.	.	2d	4b	2.dd
.	.	.	4a	.
.	.	2d	[2a	.
.	.	.	.	4cc
=22	=22	=22	=22	=22
2r	2r	1e	2a]	1.b
2.E	2.B	.	4g#	.
.	.	.	4f#	.
.	.	2r	2g#	.
4E	4B	.	.	.
2E	2B	[2e	2g#	2b
=23	=23	=23	=23	=23
1A	1c#	4e]	1a	2a
.	.	4e	.	.
.	.	2e	.	2.a
1D	1d	1f#	1r	.
.	.	.	.	4a
.	.	.	.	2b
=24	=24	=24	=24	=24
4C	2e	2g	0r	2cc
4D	.	.	.	.
4E	2e	1g	.	2cc
4F	.	.	.	.
2G	2.d	.	.	2b
2D	.	2f	.	2a
.	4c	.	.	.
=25	=25	=25	=25	=25
2E	2B	2e	1r	2g#
2F	2A	2d	.	1a
1E	2B	2.e	2r	.
.	2B	.	[2e	2g#
.	.	4d	.	.
=26	=26	=26	=26	=26
1AA	1A	4c	2e]	0a
.	.	4d	.	.
.	.	4e	2c	.
.	.	4c	.	.
2r	2r	2d	1f	.
[2A	[2c	2A	.	.
=27	=27	=27	=27	=27
2A]	2c]	1r	1e	0r
2G#	2B	.	.	.
1A	1c	2r	1e	.
.	.	[2A	.	.
=28	=28	=28	=28	=28
1E	1B	2A]	1e	1r
.	.	2G	.	.
1F	2A	2.c	2r	2r
.	2A	.	[2a	[2cc
.	.	4d	.	.
=29	=29	=29	=29	=29
1E	2r	1e	2a]	2cc]
.	2.e	.	2g	2b
2r	.	1A	1a	[1cc
.	4d	.	.	.
[2A	4c	.	.	.
.	4B	.	.	.
=30	=30	=30	=30	=30
2A]	2A	2r	1e	2cc]
2G#	2B	1e	.	2b
2A	2c	.	1f	1a
2D	2d	[2d	.	.
=31	=31	=31	=31	=31
1A	2e	2d]	1e	0a
.	1A	2.c	.	.
[1F	.	.	1r	.
.	.	4c	.	.
.	2A	2d	.	.
=32	=32	=32	=32	=32
2F]	1A	2c	2r	2r
2F	.	2A	1a	1cc
1E	2r	2.e	.	.
.	2E	.	2g	2b
.	.	4d	.	.
=33	=33	=33	=33	=33
0r	2F	0c	2f	2a
.	2C	.	2e	2g
.	4F	.	1f	1a
.	4G	.	.	.
.	4A	.	.	.
.	4B	.	.	.
=34	=34	=34	=34	=34
0r	2c	1r	2e	2g
.	2d	.	2d	2f
.	1A	2r	2.c#	1e
.	.	2A	.	.
.	.	.	4d	.
=35	=35	=35	=35	=35
1E	2r	2B	1e	0r
.	2G	1c	.	.
2F	2A	.	1r	.
2F	2A	[2d	.	.
=36	=36	=36	=36	=36
1G	1B	2d]	1d	0r
.	.	1G	.	.
1C	2c	.	2e	.
.	2e	[2c	2e	.
=37	=37	=37	=37	=37
1G	2e	2c]	1.g	2r
.	1d	2B	.	2b
2E	.	2G	.	2cc
2F	[2c	[2A	2c	2cc
=38	=38	=38	=38	=38
2D	2c]	2A]	1f	1dd
2D	2B	2F	.	.
1C	1c	2G	2e	1g
.	.	2g	2cc	.
=39	=39	=39	=39	=39
0r	1d	2g	2b	1dd
.	.	2f#	2.a	.
.	2e	1g	.	2b
.	.	.	4g	.
.	2c	.	[2g	2cc
=40	=40	=40	=40	=40
0r	2d	1r	2g]	2a
.	2d	.	2f	2a
.	[1G	2r	2.g	[1g
.	.	[2B	.	.
.	.	.	4f	.
=41	=41	=41	=41	=41
1E	1G]	2B]	4e	1g]
.	.	.	4d	.
.	.	1c	2e	.
1F	1r	.	1A	1r
.	.	[2d	.	.
=42	=42	=42	=42	=42
1G	1B	2d]	2r	0r
.	.	1G	2d	.
1C	1c	.	1e	.
.	.	2A	.	.
=43	=43	=43	=43	=43
1G	1d	2B	1.g	2r
.	.	2.d	.	2b
2E	2G	.	.	1cc
.	.	4c	.	.
2F	2A	2c	2f	.
=44	=44	=44	=44	=44
1D	2A	1f	1r	1dd
.	2B	.	.	.
1C	1c	1e	2r	1g
.	.	.	2cc	.
=45	=45	=45	=45	=45
2r	1G	1d	2.b	1dd
2G	.	.	.	.
.	.	.	4a	.
2G	1r	2e	4g	2b
.	.	.	4f	.
2A	.	2c	2e	2cc
=46	=46	=46	=46	=46
1F	0r	4d	1f	1a
.	.	4c	.	.
.	.	1c	.	.
1G	.	.	1d	2.g
.	.	2B	.	.
.	.	.	.	4f
=47	=47	=47	=47	=47
2r	2r	1c	1c	2.e
1A	1c	.	.	.
.	.	.	.	4d
.	.	[1e	1r	4c
.	.	.	.	4d
2A	2c	.	.	4e
.	.	.	.	4f
=48	=48	=48	=48	=48
2G	2B	2e]	2r	1g
2E	2G	2e	1g	.
1G	1B	2d	.	2r
.	.	2B	2g	[2dd
=49	=49	=49	=49	=49
1D	1A	1d	2f	2dd]
.	.	.	2d	2dd
2r	1r	2A	1f	2cc
[2A	.	[2c	.	2a
=50	=50	=50	=50	=50
2A]	2r	2c]	1e	1cc
2A	1e	2A	.	.
2G	.	2.B	2r	[1b
2E	2e	.	[2g	.
.	.	4B	.	.
=51	=51	=51	=51	=51
2G	2d	2B	2g]	1b]
2G	2B	2G	2g	.
1D	1d	1A	2f	2r
.	.	.	2d	[2dd
=52	=52	=52	=52	=52
1D	1d	1A	2f	2dd]
.	.	.	1f	2dd
1r	1A	1r	.	2cc
.	.	.	4e	2a
.	.	.	4d	.
=53	=53	=53	=53	=53
0r	1A	2r	2e	2cc
.	.	2.e	1a	2cc
.	1r	.	.	1b
.	.	4e	.	.
.	.	2e	2g#	.
=54	=54	=54	=54	=54
2r	1r	2c	2.a	0a
2.A	.	2A	.	.
.	.	.	8g	.
.	.	.	8f	.
.	2r	1c	1e	.
4A	.	.	.	.
2A	[2e	.	.	.
=55	=55	=55	=55	=55
2G	4e]	2B	2r	0r
.	4e	.	.	.
2E	2e	4G	2.g	.
.	.	4A	.	.
1G	2d	4B	.	.
.	.	4c	4g	.
.	2B	[2d	2g	.
=56	=56	=56	=56	=56
1D	1d	4d]	2f	2r
.	.	4e	.	.
.	.	2f	2d	2.a
1A	2c	2e	2.e	.
.	.	.	.	4a
.	[2c	4A	.	2a
.	.	4B	4d	.
=57	=57	=57	=57	=57
1E	2c]	4c	4e	2g
.	.	4d	4f	.
.	4B	1e	1g	2e
.	4A	.	.	.
1r	1B	.	.	2g
.	.	[2d	2d	2g
=58	=58	=58	=58	=58
1AA	1A	2d]	2e	[0a
.	.	2c#	2e	.
[1D	2r	1d	[1f	.
.	2D	.	.	.
=59	=59	=59	=59	=59
2D]	1.A	0r	2f]	1a]
2C	.	.	2e	.
2D	.	.	2f	1r
2F	2A	.	2a	.
=60	=60	=60	=60	=60
2E	1B	0r	2g	0r
1D	.	.	2.f	.
.	2.A	.	.	.
.	.	.	4d	.
2C	.	.	2e	.
.	4c	.	.	.
=61	=61	=61	=61	=61
2.D	4B	2r	1f	1r
.	4A	.	.	.
.	1A	2A	.	.
4C	.	.	.	.
1BB	.	[1d	2r	1d
.	2G#	.	2d	.
=62	=62	=62	=62	=62
1AA	1A	2d]	2f	1.a
.	.	2c	2e	.
1r	1r	2d	2f	.
.	.	2f	2a	2a
=63	=63	=63	=63	=63
0r	0r	2e	2g	1b
.	.	1d	2.f	.
.	.	.	.	2a
.	.	.	4d	.
.	.	2c	2e	2cc
=64	=64	=64	=64	=64
0r	1r	2.d	2.f	4b
.	.	.	.	4a
.	.	.	.	1a
.	.	4c	4e	.
.	2r	1B	1d	.
.	[2d	.	.	2g#
=65	=65	=65	=65	=65
2r	2d]	0A	1e	[0a
2A	1c	.	.	.
1F	.	.	2r	.
.	[2A	.	2a	.
=66	=66	=66	=66	=66
1D	2A]	1d	1f	1a]
.	2.d	.	.	.
2.G	.	1B	1d	1r
.	4c	.	.	.
.	[2B	.	.	.
4F	.	.	.	.
=67	=67	=67	=67	=67
2.E	2B]	2G	2.g	0r
.	2.e	2.g	.	.
4D	.	.	4f	.
1C	.	.	2e	.
.	4d	4f	.	.
.	4c	4e	[2cc	.
.	4B	4d	.	.
=68	=68	=68	=68	=68
1F	1A	2c	2cc]	0r
.	.	2d	4b	.
.	.	.	4a	.
[1E	2B	[1e	2g#	.
.	2c	.	[2a	.
=69	=69	=69	=69	=69
1E]	2B	1e]	2a]	1ee
.	1e	.	2g#	.
1A	.	2r	1a	1cc
.	[2c	2e	.	.
=70	=70	=70	=70	=70
1F	2c]	2.f	2r	1a
.	1A	.	2a	.
.	.	4g	.	.
1D	.	2a	1f	2.dd
.	[2d	2A	.	.
.	.	.	.	4cc
=71	=71	=71	=71	=71
1.G	4d]	1.B	2d	4b
.	4c	.	.	4a
.	4d	.	2g	1b
.	4e	.	.	.
.	2d	.	4g	.
.	.	.	4f	.
2A	2c	[2e	4e	[2a
.	.	.	4d	.
=72	=72	=72	=72	=72
1E	1B	4e]	1e	4a]
.	.	4d	.	8g#
.	.	.	.	8f#
.	.	2B	.	2g#
[1AA	[1A	[1c#	[1e	[1a
=73	=73	=73	=73	=73
1AA]	1A]	1c#]	1e]	1a]
*-	*-	*-	*-	*-
!!!CDT: 1525/^1526/-1594/2/2
!!!OCY: Italia
!!!AGN: Mass (Parody)
!!!AST: renaissance, vocal
!!!ASW: Madrigal 1548 (anon (Rore, Morales))
!!!PWK: Masses, Book 11
!!!RNB: Cadence finals: G,E
!!!YOR: Le Opere Complete, v. 28, p. 73
!!!YOO: Rome, Italy: Fratelli Scalera
!!!END: 1992//
!!!EED: John Miller
!!!YEC: Copyright 2000, John Miller
!!!YEN: United States of America
!!!YEM: Rights to all derivative electronic formats reserved.
!!!YEM: Refer to licensing agreement for further details.
!!!YEM: This file must be accompanied by the licensing agreement.
!!!YEM: A copy of the licensing agreement may be found at http://www.music-cog.ohio-state.edu/HumdrumDatabases/Palestrina/license.txt
!!!EMD: converted to Humdrum by Bret Aarden
